Breeze/actions/22/format-node-corner.svg

<?xml version="1.0" encoding="UTF-8" standalone="no"?>
<!-- Created with Inkscape (http://www.inkscape.org/) -->

<svg
   xmlns:dc="http://purl.org/dc/elements/1.1/"
   xmlns:cc="http://creativecommons.org/ns#"
   xmlns:rdf="http://www.w3.org/1999/02/22-rdf-syntax-ns#"
   xmlns:svg="http://www.w3.org/2000/svg"
   xmlns="http://www.w3.org/2000/svg"
   xmlns:sodipodi="http://sodipodi.sourceforge.net/DTD/sodipodi-0.dtd"
   xmlns:inkscape="http://www.inkscape.org/namespaces/inkscape"
   width="22"
   height="22"
   id="svg3815"
   version="1.1"
   inkscape:version="0.91 r13725"
   sodipodi:docname="format-node-corner.svg">
  <defs
     id="defs3817">
    <style
       type="text/css"
       id="current-color-scheme">
      .ColorScheme-Text {
        color:#4d4d4d;
      }
      .ColorScheme-Background {
        color:#eff0f1;
      }
      .ColorScheme-Highlight {
        color:#3daee9;
      }
      .ColorScheme-ViewText {
        color:#31363b;
      }
      .ColorScheme-ViewBackground {
        color:#fcfcfc;
      }
      .ColorScheme-ViewHover {
        color:#93cee9;
      }
      .ColorScheme-ViewFocus{
        color:#3daee9;
      }
      .ColorScheme-ButtonText {
        color:#31363b;
      }
      .ColorScheme-ButtonBackground {
        color:#eff0f1;
      }
      .ColorScheme-ButtonHover {
        color:#93cee9;
      }
      .ColorScheme-ButtonFocus{
        color:#3daee9;
      }
      </style>
  </defs>
  <sodipodi:namedview
     id="base"
     pagecolor="#ffffff"
     bordercolor="#666666"
     borderopacity="1.0"
     inkscape:pageopacity="0.0"
     inkscape:pageshadow="2"
     inkscape:zoom="19.430872"
     inkscape:cx="-4.9083912"
     inkscape:cy="14.031072"
     inkscape:document-units="px"
     inkscape:current-layer="layer1"
     showgrid="true"
     fit-margin-top="0"
     fit-margin-left="0"
     fit-margin-right="0"
     fit-margin-bottom="0"
     inkscape:window-width="1920"
     inkscape:window-height="1013"
     inkscape:window-x="-4"
     inkscape:window-y="0"
     inkscape:window-maximized="1"
     inkscape:showpageshadow="false"
     borderlayer="false"
     showguides="true">
    <sodipodi:guide
       position="2.0000044,19.999979"
       orientation="18,0"
       id="guide3338" />
    <sodipodi:guide
       position="2.0000044,1.9999785"
       orientation="0,18"
       id="guide3340" />
    <sodipodi:guide
       position="20.000004,1.9999785"
       orientation="-18,0"
       id="guide3342" />
    <sodipodi:guide
       position="0,20"
       orientation="0,-18"
       id="guide3344" />
    <sodipodi:guide
       position="3.0000044,18.999979"
       orientation="16,0"
       id="guide3346" />
    <sodipodi:guide
       position="3.0000044,2.9999785"
       orientation="0,16"
       id="guide3348" />
    <sodipodi:guide
       position="19.000004,2.9999785"
       orientation="-16,0"
       id="guide3350" />
    <sodipodi:guide
       position="17,19"
       orientation="0,-16"
       id="guide3352" />
    <inkscape:grid
       type="xygrid"
       id="grid3354" />
  </sodipodi:namedview>
  <metadata
     id="metadata3820">
    <rdf:RDF>
      <cc:Work
         rdf:about="">
        <dc:format>image/svg+xml</dc:format>
        <dc:type
           rdf:resource="http://purl.org/dc/dcmitype/StillImage" />
        <dc:title />
      </cc:Work>
    </rdf:RDF>
  </metadata>
  <g
     inkscape:label="Capa 1"
     inkscape:groupmode="layer"
     id="layer1"
     transform="translate(-461.71429,-525.79075)">
    <path
       style="color:#4d4d4d;opacity:1;fill:currentColor;fill-opacity:1;stroke:none"
       d="M 16,3 16,4 5.9121094,4 C 5.969602,4.1604624 5.9993244,4.3295502 6,4.5 5.9993244,4.6704498 5.969602,4.8395376 5.9121094,5 L 16,5 l 0,1 3,0 0,-3 z m 1,1 1,0 0,1 -1,0 z M 4,5.9121094 4,16 3,16 3,19 6,19 6,16 5,16 5,5.9121094 C 4.8395376,5.969602 4.6704498,5.9993244 4.5,6 4.3295502,5.9993244 4.1604624,5.969602 4,5.9121094 Z M 4,17 l 1,0 0,1 -1,0 z"
       transform="translate(461.71429,525.79075)"
       id="rect4108"
       class="ColorScheme-Text"
       inkscape:connector-curvature="0"
       sodipodi:nodetypes="cccccccccccccccccccccccccccccc" />
    <path
       style="stroke:none;fill:#1d99f3;fill-opacity:1"
       d="M 4.5 3 A 1.5 1.5 0 0 0 3 4.5 A 1.5 1.5 0 0 0 4.5 6 A 1.5 1.5 0 0 0 6 4.5 A 1.5 1.5 0 0 0 4.5 3 z M 4.5 4 A 0.5 0.5 0 0 1 5 4.5 A 0.5 0.5 0 0 1 4.5 5 A 0.5 0.5 0 0 1 4 4.5 A 0.5 0.5 0 0 1 4.5 4 z "
       transform="translate(461.71429,525.79075)"
       id="path4145" />
  </g>
</svg>

<?xml version="1.0" encoding="UTF-8" standalone="no"?>
<!-- Created with Inkscape (http://www.inkscape.org/) -->

<svg
   xmlns:dc="http://purl.org/dc/elements/1.1/"
   xmlns:cc="http://creativecommons.org/ns#"
   xmlns:rdf="http://www.w3.org/1999/02/22-rdf-syntax-ns#"
   xmlns:svg="http://www.w3.org/2000/svg"
   xmlns="http://www.w3.org/2000/svg"
   xmlns:sodipodi="http://sodipodi.sourceforge.net/DTD/sodipodi-0.dtd"
   xmlns:inkscape="http://www.inkscape.org/namespaces/inkscape"
   width="22"
   height="22"
   id="svg3815"
   version="1.1"
   inkscape:version="0.91 r13725"
   sodipodi:docname="pathpoint-corner.svg">
  <defs
     id="defs3817" />
  <sodipodi:namedview
     id="base"
     pagecolor="#ffffff"
     bordercolor="#666666"
     borderopacity="1.0"
     inkscape:pageopacity="0.0"
     inkscape:pageshadow="2"
     inkscape:zoom="19.430872"
     inkscape:cx="2.8112829"
     inkscape:cy="14.031072"
     inkscape:document-units="px"
     inkscape:current-layer="layer1"
     showgrid="true"
     fit-margin-top="0"
     fit-margin-left="0"
     fit-margin-right="0"
     fit-margin-bottom="0"
     inkscape:window-width="1920"
     inkscape:window-height="1021"
     inkscape:window-x="-4"
     inkscape:window-y="0"
     inkscape:window-maximized="1"
     inkscape:showpageshadow="false"
     borderlayer="false"
     showguides="true">
    <sodipodi:guide
       position="2.0000044,19.999979"
       orientation="18,0"
       id="guide3338" />
    <sodipodi:guide
       position="2.0000044,1.9999785"
       orientation="0,18"
       id="guide3340" />
    <sodipodi:guide
       position="20.000004,1.9999785"
       orientation="-18,0"
       id="guide3342" />
    <sodipodi:guide
       position="20.000004,19.999979"
       orientation="0,-18"
       id="guide3344" />
    <sodipodi:guide
       position="3.0000044,18.999979"
       orientation="16,0"
       id="guide3346" />
    <sodipodi:guide
       position="3.0000044,2.9999785"
       orientation="0,16"
       id="guide3348" />
    <sodipodi:guide
       position="19.000004,2.9999785"
       orientation="-16,0"
       id="guide3350" />
    <sodipodi:guide
       position="17,19"
       orientation="0,-16"
       id="guide3352" />
    <inkscape:grid
       type="xygrid"
       id="grid3354" />
  </sodipodi:namedview>
  <metadata
     id="metadata3820">
    <rdf:RDF>
      <cc:Work
         rdf:about="">
        <dc:format>image/svg+xml</dc:format>
        <dc:type
           rdf:resource="http://purl.org/dc/dcmitype/StillImage" />
        <dc:title />
      </cc:Work>
    </rdf:RDF>
  </metadata>
  <g
     inkscape:label="Capa 1"
     inkscape:groupmode="layer"
     id="layer1"
     transform="translate(-461.71429,-525.79075)">
    <path
       style="opacity:1;fill:#4d4d4d;fill-opacity:1;stroke:none"
       d="M 16 3 L 16 4 L 5.9121094 4 A 1.5 1.5 0 0 1 6 4.5 A 1.5 1.5 0 0 1 5.9121094 5 L 16 5 L 16 6 L 19 6 L 19 3 L 16 3 z M 4.953125 3.0722656 A 1.5 1.5 0 0 1 4.9804688 3.0800781 C 4.9714561 3.0770068 4.9622165 3.075168 4.953125 3.0722656 z M 3.9433594 3.109375 C 3.9234277 3.1173352 3.9042599 3.1259875 3.8847656 3.1347656 A 1.5 1.5 0 0 1 3.9433594 3.109375 z M 3.4804688 3.4023438 C 3.4614522 3.4200021 3.4419016 3.43646 3.4238281 3.4550781 A 1.5 1.5 0 0 1 3.4804688 3.4023438 z M 3.28125 3.6289062 C 3.2692283 3.6457315 3.2574259 3.6623501 3.2460938 3.6796875 A 1.5 1.5 0 0 1 3.28125 3.6289062 z M 3.1367188 3.8789062 C 3.1278679 3.8983493 3.1193638 3.9176178 3.1113281 3.9375 A 1.5 1.5 0 0 1 3.1367188 3.8789062 z M 4.5 4 C 4.56925 4 4.6354531 4.0138281 4.6953125 4.0390625 A 0.5 0.5 0 0 0 4.5 4 z M 4.5 4 A 0.5 0.5 0 0 0 4.3066406 4.0390625 C 4.3660388 4.0142862 4.4314159 4 4.5 4 z M 4.6953125 4.0390625 C 4.7546661 4.0640836 4.806612 4.1018239 4.8515625 4.1464844 A 0.5 0.5 0 0 0 4.6953125 4.0390625 z M 17 4 L 18 4 L 18 5 L 17 5 L 17 4 z M 4.3007812 4.0410156 A 0.5 0.5 0 0 0 4.1464844 4.1464844 C 4.190649 4.1023198 4.2425444 4.0661773 4.3007812 4.0410156 z M 4.8535156 4.1464844 C 4.8976802 4.190649 4.9338227 4.2425444 4.9589844 4.3007812 A 0.5 0.5 0 0 0 4.8535156 4.1464844 z M 4.1464844 4.1484375 A 0.5 0.5 0 0 0 4.0390625 4.3046875 C 4.0640836 4.2453339 4.1018239 4.193388 4.1464844 4.1484375 z M 4.0390625 4.3046875 A 0.5 0.5 0 0 0 4 4.5 C 4 4.43075 4.0138281 4.3645469 4.0390625 4.3046875 z M 4 4.5 A 0.5 0.5 0 0 0 4.0390625 4.6933594 C 4.0142862 4.6339612 4 4.5685841 4 4.5 z M 4.9609375 4.3066406 C 4.9857138 4.3660388 5 4.4314159 5 4.5 A 0.5 0.5 0 0 0 4.9609375 4.3066406 z M 5 4.5 C 5 4.56925 4.9861719 4.6354531 4.9609375 4.6953125 A 0.5 0.5 0 0 0 5 4.5 z M 4.9609375 4.6953125 C 4.9359164 4.7546661 4.8981761 4.806612 4.8535156 4.8515625 A 0.5 0.5 0 0 0 4.9609375 4.6953125 z M 4.0410156 4.6992188 A 0.5 0.5 0 0 0 4.1464844 4.8535156 C 4.1023198 4.809351 4.0661773 4.7574556 4.0410156 4.6992188 z M 4.1484375 4.8535156 A 0.5 0.5 0 0 0 4.3046875 4.9609375 C 4.2453339 4.9359164 4.193388 4.8981761 4.1484375 4.8535156 z M 4.3046875 4.9609375 A 0.5 0.5 0 0 0 4.5 5 C 4.43075 5 4.3645469 4.9861719 4.3046875 4.9609375 z M 4.5 5 A 0.5 0.5 0 0 0 4.6933594 4.9609375 C 4.6339612 4.9857138 4.5685841 5 4.5 5 z M 4.8535156 4.8535156 C 4.809351 4.8976802 4.7574556 4.9338227 4.6992188 4.9589844 A 0.5 0.5 0 0 0 4.8535156 4.8535156 z M 4 5.9121094 L 4 16 L 3 16 L 3 19 L 6 19 L 6 16 L 5 16 L 5 5.9121094 A 1.5 1.5 0 0 1 4.5 6 A 1.5 1.5 0 0 1 4 5.9121094 z M 6 6 L 6 13 L 8 10.5 L 11 10.5 L 6 6 z M 4 17 L 5 17 L 5 18 L 4 18 L 4 17 z "
       transform="translate(461.71429,525.79075)"
       id="rect4108" />
    <path
       style="stroke:none;fill:#1d99f3;fill-opacity:1"
       d="M 4.5 3 A 1.5 1.5 0 0 0 3 4.5 A 1.5 1.5 0 0 0 4.5 6 A 1.5 1.5 0 0 0 6 4.5 A 1.5 1.5 0 0 0 4.5 3 z M 4.5 4 A 0.5 0.5 0 0 1 5 4.5 A 0.5 0.5 0 0 1 4.5 5 A 0.5 0.5 0 0 1 4 4.5 A 0.5 0.5 0 0 1 4.5 4 z "
       transform="translate(461.71429,525.79075)"
       id="path4145" />
  </g>
</svg>
